packages/ui-icons/svg/Solid/review-screen.svg

<svg viewBox="0 0 1920 1920" xmlns="http://www.w3.org/2000/svg">
    <g fill-rule="evenodd">
        <path d="M0 53h1386.67v342.083c-50.87-14.385-104.54-22.083-160-22.083C902.66 373 640 635.66 640 959.667c0 324.003 262.66 586.663 586.67 586.663 55.46 0 109.13-7.69 160-22.08v342.08H0V53Z" fill-rule="nonzero"/>
        <path d="M1226.67 1439.67c113.33 0 217.48-39.28 299.6-104.96l302.37 302.65c20.82 20.84 54.59 20.85 75.42.04 20.84-20.82 20.86-54.59.04-75.43l-302.41-302.68c65.7-82.12 104.98-186.29 104.98-299.623 0-265.097-214.91-480-480-480-265.1 0-480.003 214.903-480.003 480 0 265.093 214.903 480.003 480.003 480.003Zm0-106.67c206.18 0 373.33-167.15 373.33-373.333 0-206.187-167.15-373.334-373.33-373.334-206.19 0-373.337 167.147-373.337 373.334 0 206.183 167.147 373.333 373.337 373.333Z"/>
    </g>
</svg>

<svg viewBox="0 0 1920 1920" version="1.1" xmlns="http://www.w3.org/2000/svg">
    <g stroke="none" stroke-width="1" fill-rule="evenodd">
        <path d="M0,53 L1386.67,53 L1386.67,395.083 C1335.8,380.698 1282.13,373 1226.67,373 C902.66,373 640,635.66 640,959.667 C640,1283.67 902.66,1546.33 1226.67,1546.33 C1282.13,1546.33 1335.8,1538.64 1386.67,1524.25 L1386.67,1866.33 L0,1866.33 L0,53 Z" fill-rule="nonzero"/>
        <path d="M1226.67,1439.67 C1340,1439.67 1444.15,1400.39 1526.27,1334.71 L1828.64,1637.36 C1849.46,1658.2 1883.23,1658.21 1904.06,1637.4 C1924.9,1616.58 1924.92,1582.81 1904.1,1561.97 L1601.69,1259.29 C1667.39,1177.17 1706.67,1073 1706.67,959.667 C1706.67,694.57 1491.76,479.667 1226.67,479.667 C961.57,479.667 746.667,694.57 746.667,959.667 C746.667,1224.76 961.57,1439.67 1226.67,1439.67 Z M1226.67,1333 C1432.85,1333 1600,1165.85 1600,959.667 C1600,753.48 1432.85,586.333 1226.67,586.333 C1020.48,586.333 853.333,753.48 853.333,959.667 C853.333,1165.85 1020.48,1333 1226.67,1333 Z"/>
    </g>
</svg>
